svg/fluentui-system-icons/ic_fluent_chat_settings_24_filled.svg

<svg width="24" height="24" viewBox="0 0 24 24" fill="none" xmlns="http://www.w3.org/2000/svg">
<path d="M12 2C17.5228 2 22 6.47715 22 12C22 12.2628 21.9899 12.5232 21.97 12.7809C20.805 11.6771 19.2316 11 17.5 11C13.9101 11 11 13.9101 11 17.5C11 19.2316 11.6771 20.805 12.7809 21.97C12.5232 21.9899 12.2628 22 12 22C10.3596 22 8.77516 21.6039 7.35578 20.8583L3.06538 21.9753C2.6111 22.0937 2.1469 21.8213 2.02858 21.367C1.99199 21.2266 1.99198 21.0791 2.02855 20.9386L3.1449 16.6502C2.3972 15.2294 2 13.6428 2 12C2 6.47715 6.47715 2 12 2ZM14.2782 13.9756C14.593 15.0658 13.9386 16.1992 12.837 16.4718L12.2528 16.6163C12.2079 16.904 12.1846 17.1992 12.1846 17.5C12.1846 17.8147 12.2101 18.1232 12.2592 18.4234L12.7986 18.5533C13.9111 18.8212 14.5725 19.9663 14.2486 21.0638L14.0623 21.6951C14.5014 22.0807 15.0019 22.3939 15.5464 22.6166L16.0397 22.0979C16.8283 21.2687 18.1506 21.2689 18.9388 22.0984L19.4375 22.6232C19.9811 22.4029 20.4811 22.0927 20.9204 21.7103L20.7223 21.0244C20.4076 19.9341 21.062 18.8007 22.1635 18.5281L22.7472 18.3837C22.7922 18.096 22.8155 17.8008 22.8155 17.5C22.8155 17.1852 22.7899 16.8767 22.7409 16.5764L22.2019 16.4466C21.0894 16.1787 20.4281 15.0337 20.7519 13.9361L20.9381 13.3052C20.499 12.9195 19.9985 12.6063 19.4539 12.3835L18.9608 12.902C18.1722 13.7313 16.85 13.731 16.0617 12.9015L15.5629 12.3766C15.0193 12.5969 14.5194 12.907 14.0801 13.2894L14.2782 13.9756ZM17.5 16C18.3007 16 18.9497 16.6716 18.9497 17.5C18.9497 18.3284 18.3007 19 17.5 19C16.6994 19 16.0504 18.3284 16.0504 17.5C16.0504 16.6716 16.6994 16 17.5 16Z" fill="#212121"/>
</svg>

<svg xmlns="http://www.w3.org/2000/svg" width="24" height="24"><path d="M12 2c5.523 0 10 4.477 10 10 0 .263-.01.523-.03.78a6.5 6.5 0 0 0-9.19 9.19 9.96 9.96 0 0 1-5.425-1.112l-4.29 1.117A.85.85 0 0 1 2.03 20.94l1.116-4.289A9.959 9.959 0 0 1 2 12C2 6.477 6.477 2 12 2Zm2.278 11.976a2 2 0 0 1-1.441 2.496l-.584.144a5.729 5.729 0 0 0 .006 1.807l.54.13a2 2 0 0 1 1.45 2.51l-.187.632c.44.386.94.699 1.484.922l.494-.52a2 2 0 0 1 2.899.001l.498.525a5.281 5.281 0 0 0 1.483-.913l-.198-.686a2 2 0 0 1 1.441-2.496l.584-.144a5.716 5.716 0 0 0-.006-1.808l-.54-.13a2 2 0 0 1-1.45-2.51l.187-.63a5.28 5.28 0 0 0-1.484-.922l-.493.518a2 2 0 0 1-2.9 0l-.498-.525a5.28 5.28 0 0 0-1.483.912l.198.687ZM17.5 16c.8 0 1.45.672 1.45 1.5S18.3 19 17.5 19c-.8 0-1.45-.672-1.45-1.5S16.7 16 17.5 16Z"/></svg>
